X:1

T:Bashful Lover, The

M:3/4

L:1/8

N:”Slow”

R:Air

S:O’Neill – Music of Ireland (1903), No. 550

Z:AK/Fiddler’s Companion

K:G

G>A|B>B B2 A>G|G2 D2 G>A|B2B2 g>e|{e}d4 g>e|ed dB A>G|G2D2 G>A|

B2B2 {B}A>G|G4||d>e|g3a ba|{a}g2d2 d>e|gd cB AG|{G}A6 B>d|g2 g>a ba|

G2d2 B>c|dg b2 {b}a>g|g4 f>g|gd cB AG|G2D2 G>A|B2 B2 {B}A>G|G4||

           

BASHFUL MAID, THE (An Og-bean Cutail). AKA and see “Malowney’s/Maloney’s Wife.” Irish, Double Jig. D Major. Standard tuning. AABB. O'Neill (Krassen), 1976; Pg. 59. O'Neill (Music of Ireland: 1850 Melodies), 1903/1979; No. 1037, pg. 194. O'Neill (Dance Music of Ireland: 1001 Gems), 1907/1986; No. 247, pg. 55.

